outputs/icons/general/tag_outline_round.svg

<svg xmlns="http://www.w3.org/2000/svg" width="1200" height="1200" fill="none"><path fill="#000" d="M1072.54 541.29 658.71 127.459A93.75 93.75 0 0 0 592.42 100H193.75c-51.778 0-93.75 41.972-93.75 93.75v398.67a93.76 93.76 0 0 0 27.459 66.29l413.831 413.83c36.61 36.61 95.97 36.615 132.585 0l398.665-398.665c36.61-36.615 36.61-95.975 0-132.585m-464.95 464.95L193.75 592.42V193.75h398.67l413.83 413.83zM475 381.25c0 51.778-41.972 93.75-93.75 93.75s-93.75-41.972-93.75-93.75 41.973-93.75 93.75-93.75S475 329.473 475 381.25"/></svg>

<svg width="1200" height="1200" viewBox="0 0 1200 1200" fill="none" xmlns="http://www.w3.org/2000/svg"><path d="M1072.54 541.29L658.71 127.459C641.13 109.878 617.28 100 592.42 100H193.75C141.972 100 100 141.972 100 193.75V592.42C100 604.73 102.425 616.92 107.136 628.295C111.848 639.67 118.754 650.005 127.459 658.71L541.29 1072.54C577.9 1109.15 637.26 1109.155 673.875 1072.54L1072.54 673.875C1109.15 637.26 1109.15 577.9 1072.54 541.29ZM607.59 1006.24L193.75 592.42V193.75H592.42L1006.25 607.58L607.59 1006.24ZM475 381.25C475 433.028 433.028 475 381.25 475C329.473 475 287.5 433.028 287.5 381.25C287.5 329.473 329.473 287.5 381.25 287.5C433.028 287.5 475 329.473 475 381.25Z" fill="black"/></svg>
